symbols/web/perm_media/materialsymbolsrounded/perm_media_wght500grad200_20px.svg

<svg xmlns="http://www.w3.org/2000/svg" height="20" width="20"><path d="M6.688 14.375q-1.021 0-1.73-.719-.708-.718-.708-1.718v-9.23q0-1 .708-1.718.709-.719 1.73-.719h2.666q.479 0 .938.187.458.188.812.542l1.479 1.479h5.355q1 0 1.718.719.719.719.719 1.719v7.021q0 1-.719 1.718-.718.719-1.718.719Zm0-2.437h11.25V4.917h-6.376L9.354 2.708H6.688v9.23Zm-4.584 7.02q-1 0-1.719-.718-.718-.719-.718-1.719V6.333q0-.479.364-.854.365-.375.865-.375.479 0 .844.375.364.375.364.854v10.188h13.792q.479 0 .844.364.364.365.364.844 0 .5-.364.865-.365.364-.844.364ZM9 10.562h6.521q.396 0 .552-.333.156-.333-.052-.646l-1.667-2.395q-.208-.271-.521-.271-.312 0-.5.271l-1.771 2.437-1.104-1.354q-.187-.25-.5-.24-.312.011-.5.261l-.979 1.27q-.208.313-.052.657.156.343.573.343Zm-2.312 1.376v-9.23 9.23Z"/></svg>

<svg xmlns="http://www.w3.org/2000/svg" height="20" width="20"><path d="M6.688 14.375Q5.667 14.375 4.958 13.656Q4.25 12.938 4.25 11.938V2.708Q4.25 1.708 4.958 0.99Q5.667 0.271 6.688 0.271H9.354Q9.833 0.271 10.292 0.458Q10.75 0.646 11.104 1L12.583 2.479H17.938Q18.938 2.479 19.656 3.198Q20.375 3.917 20.375 4.917V11.938Q20.375 12.938 19.656 13.656Q18.938 14.375 17.938 14.375ZM6.688 11.938H17.938Q17.938 11.938 17.938 11.938Q17.938 11.938 17.938 11.938V4.917Q17.938 4.917 17.938 4.917Q17.938 4.917 17.938 4.917H11.562L9.354 2.708H6.688Q6.688 2.708 6.688 2.708Q6.688 2.708 6.688 2.708V11.938Q6.688 11.938 6.688 11.938Q6.688 11.938 6.688 11.938ZM2.104 18.958Q1.104 18.958 0.385 18.24Q-0.333 17.521 -0.333 16.521V6.333Q-0.333 5.854 0.031 5.479Q0.396 5.104 0.896 5.104Q1.375 5.104 1.74 5.479Q2.104 5.854 2.104 6.333V16.521Q2.104 16.521 2.104 16.521Q2.104 16.521 2.104 16.521H15.896Q16.375 16.521 16.74 16.885Q17.104 17.25 17.104 17.729Q17.104 18.229 16.74 18.594Q16.375 18.958 15.896 18.958ZM9 10.562H15.521Q15.917 10.562 16.073 10.229Q16.229 9.896 16.021 9.583L14.354 7.188Q14.146 6.917 13.833 6.917Q13.521 6.917 13.333 7.188L11.562 9.625L10.458 8.271Q10.271 8.021 9.958 8.031Q9.646 8.042 9.458 8.292L8.479 9.562Q8.271 9.875 8.427 10.219Q8.583 10.562 9 10.562ZM6.688 11.938Q6.688 11.938 6.688 11.938Q6.688 11.938 6.688 11.938V2.708Q6.688 2.708 6.688 2.708Q6.688 2.708 6.688 2.708V4.917Q6.688 4.917 6.688 4.917Q6.688 4.917 6.688 4.917V11.938Q6.688 11.938 6.688 11.938Q6.688 11.938 6.688 11.938Z"/></svg>
